!!!!SEGMENT: pl-gd--ee-1638--008-001_marenzio-luca--il-quarto-libro-de-madrigalia-a-sei-voci-se-bramate-ch-io-mora.krn
!!!cenid: 15xx:863
!!!COM: Marenzio, Luca
!!!COM-rismID: pe30003955
!!!CDT: ~1553-1599/08/22
!!!CNT: Italian
!!!GTL: Il Quarto Libro de madrigalia a sei voci
!!!OTL: Se bramate ch'io mora
!!!OMV: 001
!!!PDT: 1587
!!!AGN:
!!!SMS-siglum: PL-GD
!!!SMS-shelfmark: Ee 1638
!!!SMS-variant:
!!!SMS-altvar:
!!!SMS-shelfwork: 008-001 G
!!!NIFC-rismSourceID: 1001202747
!!!NIFC-rismChildID: 990039254
!!!NIFC-islandoraID: pl-gd:57883
!!!URL-pdf-islandora: https://repozytorium.nifc.pl/islandora/object/pl-gd%3A57883/datastream/PDF/view
!!!URL-scan: https://polish.musicsources.pl/pl/lokalizacje/galeria/klocki-introligatorskie/655 @EN{Scan on Polish Music Sources Website} @PL{Skany w portalu Dziedzictwo Muzyki Polskiej w otwartym dostępie}
!!!IIIF: https://repozytorium.nifc.pl/islandora/object/pl-gd%3A57883/datastream/IIIF/view
!!!ONB-nifc: UWAGA: zbiór na stronach: Canto: s. 706-716, Alto: s. 554-564, Tenore: s. 402-412, Basso: s.250-260, Quinto: s. 98-108, Sesto: s. 16-26. Uwaga: utwory podzielone wg tytułów w spisach treści dostępnych na końcu każdej księgi głosowej.
!!!AIN: 1 alto 1 bass 2 soprn 2 tenor
!!!key: G:mix
**kern	**text	**kern	**text	**kern	**text	**kern	**text	**kern	**text	**kern	**text
*part6	*part6	*part5	*part5	*part4	*part4	*part3	*part3	*part2	*part2	*part1	*part1
*staff6	*staff6	*staff5	*staff5	*staff4	*staff4	*staff3	*staff3	*staff2	*staff2	*staff1	*staff1
*I"BASSO	*	*I"TENORE	*	*I"SESTO	*	*I"ALTO	*	*I"QVINTO	*	*I"CANTO	*
*I'B.	*	*I'T.	*	*I'S.	*	*I'A.	*	*I'Q.	*	*I'C.	*
*Ibass	*	*Itenor	*	*Itenor	*	*Ialto	*	*Isoprn	*	*Isoprn	*
*ICvox	*	*ICvox	*	*ICvox	*	*ICvox	*	*Cvox	*	*ICvox	*
*clefF3	*	*clefC3	*	*clefC3	*	*clefC2	*	*clefG2	*	*clefG2	*
*k[b-]	*	*k[b-]	*	*k[b-]	*	*k[b-]	*	*k[b-]	*	*k[b-]	*
*G:mix	*	*G:mix	*	*G:mix	*	*G:mix	*	*G:mix	*	*G:mix	*
*M2/1	*	*M2/1	*	*M2/1	*	*M2/1	*	*M2/1	*	*M2/1	*
=1-	=1-	=1-	=1-	=1-	=1-	=1-	=1-	=1-	=1-	=1-	=1-
*xywh-#250:4740,568,3324,810	*	*xywh-#402:4740,523,3371,814	*xywh-#16:4484,569,3331,777	*	*	*xywh-#554:4634,576,3379,814	*	*xywh-#98:4584,558,3336,832	*	*xywh-#706:4680,495,3369,851	*
00r	.	00r	.	00r	.	2.g\	SE	2r	.	2r	.
.	.	.	.	.	.	.	.	2.b-/	SE	2.dd\	SE
.	.	.	.	.	.	4g\	bra-	.	.	.	.
.	.	.	.	.	.	1g	-ma-	.	.	.	.
.	.	.	.	.	.	.	.	4b-/	bra-	4dd\	bra-
.	.	.	.	.	.	.	.	2b-/	-ma-	2dd\	-ma-
=2-	=2-	=2-	=2-	=2-	=2-	=2-	=2-	=2-	=2-	=2-	=2-
.	.	.	.	.	.	2f#X\	-te	2a/	-te	2dd\	-te
.	.	.	.	.	.	2g\	ch'io	2bn/	ch'io	2dd\	ch'io
.	.	.	.	.	.	1c	mo-	1cc	mo-	1ee-X	mo-
=3-	=3-	=3-	=3-	=3-	=3-	=3-	=3-	=3-	=3-	=3-	=3-
1r	.	1r	.	1r	.	0g	-ra	4b-/	-ra	2dd\	-ra
.	.	.	.	.	.	.	.	4dd\	Gli è	.	.
.	.	.	.	.	.	.	.	4.gg\	van	4r	.
.	.	.	.	.	.	.	.	.	.	4dd\	Gli è
.	.	.	.	.	.	.	.	8ff\	cre-	.	.
2.G\	SE	2r	.	2r	.	.	.	4ee\	-de-	4.gg\	van
.	.	.	.	.	.	.	.	4dd\	te à	.	.
.	.	.	.	.	.	.	.	.	.	8ff\	cre-
!	!	!	!	!	!	!	!	!LO:SIC:v:t=custos dd	!	!	!
.	.	2.B-/	SE	2.g\	SE	.	.	2gg\	me	4eeny\	-de-
4G\	bra-	.	.	.	.	.	.	.	.	4dd\	te a
=4-	=4-	=4-	=4-	=4-	=4-	=4-	=4-	=4-	=4-	=4-	=4-
!	!	!	!	!	!	!	!	!	!	!LO:SIC:v:t=custos dd	!
!	!	!	!	!	!	!	!	!LO:LB:g=original	!	!	!
*	*	*	*	*	*	*	*	*xywh-#98:4564,1271,3336,665	*	*	*
1G	-ma-	.	.	.	.	0r	.	0r	.	2gg\	me
.	.	4B-/	bra-	4d\	bra-	.	.	.	.	.	.
!	!	!	!	!	!	!	!	!	!	!LO:LB:g=original	!
*	*	*	*	*	*	*	*	*	*	*xywh-#706:4658,1194,3415,707	*
.	.	2B-/	-ma-	2d\	-ma-	.	.	.	.	2r	.
2F#X/	-te	2A/	-te	2d\	-te	.	.	.	.	1r	.
!	!	!LO:N:acc=#	!	!	!	!	!	!	!	!	!
2G\	ch'io	2Bn/	ch'io	2d\	ch'io	.	.	.	.	.	.
=5-	=5-	=5-	=5-	=5-	=5-	=5-	=5-	=5-	=5-	=5-	=5-
1C	mo-	1c	mo-	1e-X	mo-	2r	.	1r	.	1r	.
.	.	.	.	.	.	4r	.	.	.	.	.
.	.	.	.	.	.	4g\	Gli è	.	.	.	.
!	!	!LO:N:acc=#	!	!	!	!	!	!	!	!	!
1.G	-ra	1Bn	-ra	2d\	-ra	4.g\	van	2r	.	4r	.
.	.	.	.	.	.	.	.	.	.	4dd\	Gli è
.	.	.	.	.	.	8f\	cre-	.	.	.	.
.	.	.	.	2r	.	4e/	-de-	4r	.	4.gg\	va(n)
!	!	!	!	!	!	!LO:SIC:v:t=custos B	!	!	!	!	!
.	.	.	.	.	.	4d/	te a	4dd\	Gli è	.	.
.	.	.	.	.	.	.	.	.	.	8ff\	cre-
=6-	=6-	=6-	=6-	=6-	=6-	=6-	=6-	=6-	=6-	=6-	=6-
!	!	!	!	!	!	!LO:N:acc=#	!	!	!	!	!
!	!	!	!	!	!	!LO:LB:g=original	!	!	!	!	!
*	*	*	*	*	*	*xywh-#554:4657,1205,3394,744	*	*	*	*	*
.	.	4r	.	2r	.	2Bn/	me	4.gg\	van	4ee\	-de-
.	.	4g\	Gli è	.	.	.	.	.	.	4dd\	rte a
.	.	.	.	.	.	.	.	8ff\	cre-	.	.
4r	.	4.g\	van	4r	.	4r	.	4ee\	-de-	2gg\	me
!	!	!	!	!	!	!LO:N:acc=#	!	!	!	!	!
4G\	Gli è	.	.	4g\	Gli è	4Bn/	Gli è	4dd\	te a	.	.
.	.	8f\	cre-	.	.	.	.	.	.	.	.
4.C/	van	4e\	-de-	4.g\	van	4c/	van	2gg\	me	4r	.
.	.	4c/	te a	.	.	4cc\	cre-	.	.	4gg\	Gli è
8D/	cre-	.	.	8f\	cre-	.	.	.	.	.	.
!	!	!LO:SIC:v:t=custos d	!	!	!	!	!	!	!	!	!
4E/	-de-	2g\	me	4eny\	-de-	4cc\	-de-	4r	.	4.gg\	va(n)
!LO:SIC:v:t=custos C	!	!	!	!LO:SIC:v:t=custos e	!	!LO:N:acc=#	!	!	!	!	!
4G\	te a	.	.	4d\	te à	4bn\	te a	4gg\	Gli è	.	.
.	.	.	.	.	.	.	.	.	.	8ff\	cre-
=7-	=7-	=7-	=7-	=7-	=7-	=7-	=7-	=7-	=7-	=7-	=7-
!LO:LB:g=original	!	!	!	!	!	!	!	!	!	!	!
!	!	!LO:LB:g=original	!	!	!	!	!	!	!	!	!
!	!	!	!	!LO:LB:g=original	!	!	!	!	!	!	!
*xywh-#250:4727,1240,3331,741	*	*xywh-#402:4732,1122,3409,760	*xywh-#16:4477,1283,3352,610	*	*	*	*	*	*	*	*
4C/	me	4r	.	4e\	me	4cc\	me	4.gg\	van	4ee\	-de-
!	!	!	!	!	!	!LO:N:acc=#	!	!	!	!	!
4G\	Gli è	4d\	Gli è	4g\	Gli è	4bn\	Gli è	.	.	4dd\	te a
.	.	.	.	.	.	.	.	8ff\	cre-	.	.
4.C/	van	4.e\	van	4.g\	van	4cc\	van	4ee\	-de-	1gg	me
.	.	.	.	.	.	4g\	cre-	4cc\	te à	.	.
8D/	cre-	8d\	cre-	8f\	cre-	.	.	.	.	.	.
4E/	-de-	4c/	-de-	4e\	-de-	4g\	-de-	1gg	me	.	.
!	!	!LO:N:acc=#	!	!	!	!	!	!	!	!	!
4G\	te a	4Bn/	te a	4d\	te a	4g\	te à	.	.	.	.
2C/	me	2c/	me	2e\	me	2g\	me	.	.	2ee\	voſ-
=8-	=8-	=8-	=8-	=8-	=8-	=8-	=8-	=8-	=8-	=8-	=8-
1Fny	voſ-	00r	.	2r	.	1.a	vo-	2r	.	4dd\	-tro
.	.	.	.	.	.	.	.	.	.	4cc\	de-
.	.	.	.	2f\	voſ-	.	.	2cc\	voſ-	2.ff\	-ſi-
2F/	-tro	.	.	4d\	-tro	.	.	2f/	-tro	.	.
.	.	.	.	4c/	de-	.	.	.	.	4ee\	.
!	!	!	!	!	!	!	!	!LO:SIC:v:t=custos a	!	!	!
2G\	de-	.	.	4.g\	-ſi-	2d/	-ſtro	2b-/	de-	2.dd\	.
.	.	.	.	8f\	.	.	.	.	.	.	.
=9-	=9-	=9-	=9-	=9-	=9-	=9-	=9-	=9-	=9-	=9-	=9-
!	!	!	!	!	!	!	!	!LO:LB:g=original	!	!	!
*	*	*	*	*	*	*	*	*xywh-#98:4537,1797,3389,665	*	*	*
1A	-ſi-	.	.	1e	.	4r	.	1a	-ſi-	.	.
.	.	.	.	.	.	4a\	de-	.	.	8cc#X\	.
!	!	!	!	!	!	!	!	!	!	!LO:N:acc=#	!
.	.	.	.	.	.	.	.	.	.	8bn\	.
!	!	!	!	!	!	!LO:SIC:v:t=custos f#	!	!	!	!LO:SIC:v:t=custos dd	!
.	.	.	.	.	.	2e/	-ſi-	.	.	2cc#X\	.
!	!	!	!	!	!	!	!	!	!	!LO:LB:g=original	!
!	!	!	!	!	!	!LO:LB:g=original	!	!	!	!	!
*	*	*	*	*	*	*xywh-#554:4695,1797,3325,668	*	*	*	*xywh-#706:4703,1742,3346,676	*
0D	-re	.	.	1d	-re	1f#X	-re	1a	-re	1dd	-re
=10-	=10-	=10-	=10-	=10-	=10-	=10-	=10-	=10-	=10-	=10-	=10-
.	.	1d	Che	00r	.	2r	.	2r	.	2r	.
.	.	.	.	.	.	2f#X\	Che	2dd\	Che	2a/	Che
1r	.	2d\	chi	.	.	2f#\	chi	2dd\	chi	2a/	chi
.	.	2G/	vi-	.	.	2g\	vi-	2dd\	vi-	2b-/	vi-
=11-	=11-	=11-	=11-	=11-	=11-	=11-	=11-	=11-	=11-	=11-	=11-
0r	.	2F/	-ta	.	.	2a\	-ta	2.ff\	-ta	2ccny\	-ta
.	.	2F/	non	.	.	2a\	non	.	.	2cc\	non
.	.	.	.	.	.	.	.	4ff\	non	.	.
.	.	1B-	hà	.	.	1b-ny	hà	1ff	hà	1dd	hà
=12-	=12-	=12-	=12-	=12-	=12-	=12-	=12-	=12-	=12-	=12-	=12-
1r	.	4c/	non	1r	.	4g\	non	4ee-X\	non	4cc\	no(n)
.	.	2e-X\	può	.	.	2g\	può	2ee-\	puo	2b-/	può
.	.	4c/	mo-	.	.	4g\	mo-	4ee-\	mo-	4cc\	mo-
2r	.	2d\	-ri-	2r	.	2f#X\	-ri-	2dd\	-ri-	2a/	-ri-
!	!	!LO:SIC:v:t=custos G	!	!	!	!	!	!	!	!	!
4r	.	2d\	-re	4r	.	2f#\	-re	2dd\	-re	4a/	-re
4D/	Co i	.	.	4d\	Co i	.	.	.	.	4a/	Co i
=13-	=13-	=13-	=13-	=13-	=13-	=13-	=13-	=13-	=13-	=13-	=13-
!	!	!	!	!	!	!	!	!	!	!LO:N:acc=#	!
!	!	!LO:LB:g=original	!	!	!	!	!	!	!	!	!
*	*	*xywh-#402:4678,1705,3509,775	*	*	*	*	*	*	*	*	*
4G\	bei	4r	.	4d\	bei	4r	.	4r	.	4bn/	bei
!	!	!	!	!LO:SIC:v:t=custos c	!	!	!	!	!	!	!
4G\	voſ-	4G/	Co i	4d\	vo-	4g\	Co i	4dd\	Co i	4b/	voſ-
!	!	!	!	!LO:LB:g=original	!	!	!	!	!	!	!
*	*	*	*	*xywh-#16:4484,1825,3359,596	*	*	*	*	*	*	*
4C/	tri oc-	4G/	bei	4c/	ſtri oc-	4g\	bei	4eeny\	bei	4cc\	tri oc-
!LO:SIC:v:t=custos F	!	!	!	!	!	!	!	!	!	!	!
4C/	-chi	4c/	vo-	4G/	-chi	4g\	vo-	4ee\	vo-	4cc\	-chi
!LO:LB:g=original	!	!	!	!	!	!	!	!	!	!	!
*xywh-#250:4754,1794,3331,699	*	*	*	*	*	*	*	*	*	*	*
2F/	vo-	4c/	ſtri oc-	2A/	vo-	4fny\	ſtri oc-	4ff\	ſtri oc-	2cc\	vo-
.	.	4A/	-chi	.	.	4f\	-chi	4ff\	-chi	.	.
!	!	!	!	!	!	!LO:SIC:v:t=custos g	!	!LO:SIC:v:t=custos b-	!	!LO:SIC:v:t=custos gg	!
2BB-/	-i	2d\	vo-	2B-/	-i	2f\	vo-	2ff\	vo-	2dd\	-i
=14-	=14-	=14-	=14-	=14-	=14-	=14-	=14-	=14-	=14-	=14-	=14-
!	!	!	!	!	!	!	!	!	!	!LO:LB:g=original	!
!	!	!	!	!	!	!	!	!LO:LB:g=original	!	!	!
!	!	!	!	!	!	!LO:LB:g=original	!	!	!	!	!
*	*	*	*	*	*	*xywh-#554:4687,2296,3432,714	*	*xywh-#98:4551,2370,3389,639	*	*xywh-#706:4696,2290,3392,661	*
4r	.	1e-X	-i	4r	.	1g	-i	2b-/	-i	4r	.
4.E-X/	Da-	.	.	4.B-/	Da-	.	.	.	.	4.gg\	Da-
.	.	.	.	.	.	.	.	2r	.	.	.
8D/	-te-	.	.	8B-/	-te-	.	.	.	.	8ff\	-te-
4C/	-mi	.	.	4c/	-mi	.	.	.	.	4ee-X\	-mi
!	!	!	!	!LO:N:acc=#	!	!	!	!	!	!	!
2G\	vi-	4r	.	2Bn/	vi-	4.g\	Da-	4r	.	2dd\	vi-
.	.	4d\	Da-	.	.	.	.	4.gg\	Da-	.	.
.	.	.	.	.	.	8g\	-te-	.	.	.	.
8C/	-ta	4e-\	-te-	2c/	-ta	2g\	-mi	.	.	2cc\	-ta
8D/	.	.	.	.	.	.	.	8ff\	-te-	.	.
8E-X/	.	4c/	-mi	.	.	.	.	4ee-X\	-mi	.	.
8F/	.	.	.	.	.	.	.	.	.	.	.
=15-	=15-	=15-	=15-	=15-	=15-	=15-	=15-	=15-	=15-	=15-	=15-
!	!	!LO:N:acc=#	!	!	!	!	!	!	!	!	!
2G\	.	2Bn/	vi-	4r	.	2g\	vi-	2dd\	vi-	4r	.
.	.	.	.	4d\	Da-	.	.	.	.	4.gg\	Da-
4r	.	2c/	-ta	4e-X\	-te-	2g\	-ta	2cc\	-ta	.	.
.	.	.	.	.	.	.	.	.	.	8ff\	-te-
4C/	e	.	.	4c/	-mi	.	.	.	.	4ee-X\	-mi
!	!	!	!	!LO:N:acc=#	!	!	!	!	!	!	!
2G\	po-	4r	.	2Bn/	vi-	4.g\	Da-	4r	.	2dd\	vi-
.	.	4d\	Da-	.	.	.	.	4.gg\	Da-	.	.
.	.	.	.	.	.	8g\	-te-	.	.	.	.
4c\	-i	4e-X\	-te-	2c/	-ta	4g\	-mi	.	.	2cc\	-ta
.	.	.	.	.	.	.	.	8ff\	-te-	.	.
4C/	e	4c/	-mi	.	.	2cc\	vi-	4ee-X\	-mi	.	.
=16-	=16-	=16-	=16-	=16-	=16-	=16-	=16-	=16-	=16-	=16-	=16-
2G\	po-	2d\	vi-	4r	.	.	.	2dd\	vi-	2r	.
.	.	.	.	4G/	e	8b-\	.	.	.	.	.
.	.	.	.	.	.	8a\	.	.	.	.	.
!	!	!LO:SIC:v:t=custos c	!	!	!	!	!	!	!	!	!
2C/	-i	2eny\	-ta	2c/	po-	4g\	-ta	2cc\	ta e	4r	.
.	.	.	.	.	.	4g\	e	.	.	4eeny\	e
!	!	!	!	!LO:SIC:v:t=custos B-	!	!	!	!	!	!	!
!	!	!LO:LB:g=original	!	!	!	!	!	!	!	!	!
*	*	*xywh-#402:4770,2258,3417,698	*	*	*	*	*	*	*	*	*
1r	.	4r	.	1F	-i	1a	po-	1cc	poi	1ff	po-
.	.	4c/	e	.	.	.	.	.	.	.	.
.	.	2f\	po-	.	.	.	.	.	.	.	.
=17-	=17-	=17-	=17-	=17-	=17-	=17-	=17-	=17-	=17-	=17-	=17-
!	!	!	!	!LO:LB:g=original	!	!	!	!	!	!	!
*	*	*	*	*xywh-#16:4484,2352,3386,596	*	*	*	*	*	*	*
0r	.	2B-/	-i	4r	.	4b-\	-i	4.dd\	Ha-	4ff\	-i
.	.	.	.	4B-/	Hau-	4f\	Hau-	.	.	4dd\	Hau-
.	.	.	.	.	.	.	.	8eeny\	-u-	.	.
.	.	2r	.	4B-/	-rà	4d/	-rà	2ff\	-rà	4b-/	-ra
!	!	!	!	!	!	!LO:SIC:v:t=custos a	!	!	!	!	!
.	.	.	.	4B-/	ciaſ-	4b-\	cia-	.	.	4dd\	ciaſ-
!	!	!	!	!	!	!LO:LB:g=original	!	!	!	!	!
*	*	*	*	*	*	*xywh-#554:4634,2818,3425,691	*	*	*	*	*
.	.	2r	.	4c/	-cun	4.a\	-ſcun	2r	.	4.cc\	-cun
.	.	.	.	4c/	di	.	.	.	.	.	.
.	.	.	.	.	.	8g\	di	.	.	8b-/	di
!	!	!	!	!	!	!	!	!	!	!LO:SIC:v:t=custos f	!
.	.	4r	.	2d\	noi	4f\	noi	4r	.	2a/	noi
!	!	!	!	!	!	!	!	!LO:SIC:v:t=custos ee-	!	!	!
.	.	4d\	quel	.	.	4f\	quel	4dd\	quel	.	.
=18-	=18-	=18-	=18-	=18-	=18-	=18-	=18-	=18-	=18-	=18-	=18-
!	!	!	!	!	!	!	!	!	!	!LO:LB:g=original	!
!	!	!	!	!	!	!	!	!LO:LB:g=original	!	!	!
*	*	*	*	*	*	*	*	*xywh-#98:4537,2909,3396,599	*	*xywh-#706:4688,2799,3369,669	*
1r	.	4c/	che	1r	.	8g\	che	4ee-X\	che	4r	.
.	.	.	.	.	.	8a\	de-	.	.	.	.
.	.	4B-/	de-	.	.	4.b-\	-ſi-	2dd\	de-	4f/	quel
.	.	2e-X\	-ſi-	.	.	.	.	.	.	4.g/	che
.	.	.	.	.	.	8a\	.	.	.	.	.
.	.	.	.	.	.	2g\	.	4cc\	-ſi-	.	.
.	.	.	.	.	.	.	.	.	.	8a/	de-
2r	.	1d	-a	2r	.	.	.	1dd	-a	4b-/	-ſi-
.	.	.	.	.	.	4f#X\	-a	.	.	4a/	-a
!LO:SIC:v:t=custos G	!	!	!	!	!	!	!	!	!	!	!
2D/	e	.	.	2.d\	e	4r	.	.	.	4r	.
.	.	.	.	.	.	4f#X\	e	.	.	4a/	e
=19-	=19-	=19-	=19-	=19-	=19-	=19-	=19-	=19-	=19-	=19-	=19-
!	!	!	!	!	!	!	!	!	!	!LO:N:acc=#	!
!LO:LB:g=original	!	!	!	!	!	!	!	!	!	!	!
*xywh-#250:4720,2306,3365,734	*	*	*	*	*	*	*	*	*	*	*
2G\	po-	4r	.	.	.	1g	po-	4r	.	2bn/	po-
.	.	4G/	e	2g\	po-	.	.	4dd\	e	.	.
4C/	-i	1c	po-	.	.	.	.	2eeny\	po-	4cc\	-i
4C/	e	.	.	4eny\	-i	.	.	.	.	4cc\	e
1F	po-	.	.	4r	.	1a	-i	1ff	-i	1cc	po-
.	.	.	.	4c/	e	.	.	.	.	.	.
.	.	2F/	-i	2f\	po-	.	.	.	.	.	.
=20-	=20-	=20-	=20-	=20-	=20-	=20-	=20-	=20-	=20-	=20-	=20-
4BB-/	-i	1r	.	1f	-i	4r	.	4r	.	2dd\	-i
4B-\	Hau-	.	.	.	.	4fny\	Hau-	4dd\	Hau-	.	.
4B-\	-rà	.	.	.	.	4d/	-rà	4b-/	-rà	2r	.
4B-\	ciaſ-	.	.	.	.	4b-\	ciaſ-	4dd\	ciaſ-	.	.
4c\	-cun	2r	.	2r	.	4.a\	-cun	4.cc\	-cun	2r	.
4c\	di	.	.	.	.	.	.	.	.	.	.
.	.	.	.	.	.	8g\	di	8b-/	di	.	.
!	!	!	!	!	!	!LO:SIC:v:t=custos f#	!	!	!	!	!
2d\	noi	4r	.	4r	.	2f\	noi	2a/	noi	4r	.
.	.	4f\	Hau-	4d\	Hau-	.	.	.	.	4ff\	Hau-
=21-	=21-	=21-	=21-	=21-	=21-	=21-	=21-	=21-	=21-	=21-	=21-
!	!	!	!	!	!	!LO:LB:g=original	!	!	!	!	!
*	*	*	*	*	*	*xywh-#554:4672,3371,3363,668	*	*	*	*	*
1r	.	4f\	-rà	4B-/	-rà	0r	.	1r	.	4dd\	-rà
.	.	4f\	ciaſ-	4d\	ciaſ-	.	.	.	.	4ff\	ciaſ-
.	.	4g\	-cun	4.c/	-cun	.	.	.	.	4.ee\	-cun
!	!	!LO:SIC:v:t=custos a	!	!	!	!	!	!	!	!	!
.	.	4g\	di	.	.	.	.	.	.	.	.
!	!	!	!	!LO:SIC:v:t=custos A	!	!	!	!	!	!	!
.	.	.	.	8B-/	di	.	.	.	.	8dd\	di
!	!	!	!	!	!	!	!	!	!	!LO:SIC:v:t=custos a	!
!	!	!	!	!LO:LB:g=original	!	!	!	!	!	!	!
!	!	!LO:LB:g=original	!	!	!	!	!	!	!	!	!
*	*	*xywh-#402:4786,2773,3348,683	*xywh-#16:4463,2845,3359,631	*	*	*	*	*	*	*	*
4r	.	2a\	noi	4A/	noi	.	.	4r	.	2cc\	noi
4A\	quel	.	.	4c/	quel	.	.	4a/	quel	.	.
!	!	!	!	!	!	!	!	!	!	!LO:LB:g=original	!
*	*	*	*	*	*	*	*	*	*	*xywh-#706:4711,3355,3308,661	*
4G\	che	4r	.	8d\	che	.	.	4b-/	che	2r	.
.	.	.	.	8e\	de-	.	.	.	.	.	.
4F/	de-	4c/	quel	4.f\	-ſi-	.	.	2a/	de-	.	.
=22-	=22-	=22-	=22-	=22-	=22-	=22-	=22-	=22-	=22-	=22-	=22-
2B-\	-ſi-	4.d\	che	.	.	1r	.	.	.	1r	.
.	.	.	.	8e\	.	.	.	.	.	.	.
.	.	.	.	2d\	.	.	.	4g/	-ſi-	.	.
.	.	8eny\	de-	.	.	.	.	.	.	.	.
!	!	!	!	!	!	!	!	!LO:SIC:v:t=custos dd	!	!	!
2A\	-a	4f\	-ſi-	.	.	.	.	2a/	-a	.	.
.	.	4e\	-a	4c#X/	-a	.	.	.	.	.	.
!LO:SIC:v:t=custos G	!	!	!	!	!	!	!	!	!	!	!
!	!	!	!	!	!	!	!	!LO:LB:g=original	!	!	!
*	*	*	*	*	*	*	*	*xywh-#98:4557,3408,3349,612	*	*	*
1D	Voi	1r	.	2r	.	1f#X	Voi	2r	.	1a	Voi
.	.	.	.	1d\	Voi	.	.	1dd\	Voi	.	.
=23-	=23-	=23-	=23-	=23-	=23-	=23-	=23-	=23-	=23-	=23-	=23-
!	!	!	!	!	!	!	!	!	!	!LO:N:acc=#	!
!LO:LB:g=original	!	!	!	!	!	!	!	!	!	!	!
*xywh-#250:4671,2881,3421,664	*	*	*	*	*	*	*	*	*	*	*
1G	la	2r	.	.	.	1g	la	.	.	1bn	la
.	.	2G/	Voi	1d	la	.	.	1gg	la	.	.
1G	mia	2d\	la	.	.	1g	mia	.	.	2b/	mia
.	.	4e\	mia	2cny/	mia	.	.	2ee\	mia	1cc\	mor-
.	.	2g\	mor-	.	.	.	.	.	.	.	.
=24-	=24-	=24-	=24-	=24-	=24-	=24-	=24-	=24-	=24-	=24-	=24-
1G	mor-	.	.	2d\	mor-	1.g	mor-	1dd	mor-	.	.
.	.	8f\	.	.	.	.	.	.	.	.	.
.	.	8e\	.	.	.	.	.	.	.	.	.
!	!	!	!	!	!	!	!	!	!	!LO:N:acc=#	!
.	.	2d\	.	2G/	te (et)	.	.	.	.	2bn/	-te
2C/	te (et)	8e\	-te	2.c/	io	.	.	1cc	te (et)	1r	.
.	.	8d\	.	.	.	.	.	.	.	.	.
.	.	8c/	.	.	.	.	.	.	.	.	.
.	.	8B-/	.	.	.	.	.	.	.	.	.
!	!	!LO:SIC:v:t=custos A	!	!	!	!	!	!	!	!	!
1F\	io	2A/	.	.	.	2a\	te (et)	.	.	.	.
.	.	.	.	4B-/	la	.	.	.	.	.	.
=25-	=25-	=25-	=25-	=25-	=25-	=25-	=25-	=25-	=25-	=25-	=25-
.	.	1r	.	2A/	vi-	0a	io	1.ff	io	1cc	(et)
2Eny/	la	.	.	2G/	-ta	.	.	.	.	.	.
!	!	!LO:LB:g=original	!	!	!	!	!	!	!	!	!
*	*	*xywh-#402:4801,3318,3448,737	*	*	*	*	*	*	*	*	*
2D/	vi-	1A	(et)	1F	mi-	.	.	.	.	1.ff	io
2C/	-ta	.	.	.	.	.	.	2ee\	la	.	.
=26-	=26-	=26-	=26-	=26-	=26-	=26-	=26-	=26-	=26-	=26-	=26-
!	!	!	!	!LO:SIC:v:t=custos f	!	!	!	!	!	!	!
1.BB-	mi-	1.f	io	1F	-a	1d	la	2dd\	vi-	.	.
.	.	.	.	.	.	.	.	2cc\	-ta	2ee\	la
!	!	!	!	!LO:LB:g=original	!	!	!	!	!	!	!
*	*	*	*	*xywh-#16:4449,3393,3407,610	*	*	*	*	*	*	*
.	.	.	.	1f	la	1.d	vi-	2b-/	mi-	2dd\	vi-
2C/	.	2e\	la	.	.	.	.	4a/	.	2cc\	-ta
.	.	.	.	.	.	.	.	4g/	.	.	.
=27-	=27-	=27-	=27-	=27-	=27-	=27-	=27-	=27-	=27-	=27-	=27-
0.D	.	2d\	vi-	2f\	vi-	.	.	4f/	.	2b-/	mi-
.	.	.	.	.	.	.	.	4g/	.	.	.
*	*	*	*	*	*	*	*	*	*	*lig	*
.	.	2c/	-ta	2e\	-ta	2e/	-ta	4a/	.	1a	.
.	.	.	.	.	.	.	.	8b-/	.	.	.
.	.	.	.	.	.	.	.	8cc\	.	.	.
*	*	*col	*	*	*	*	*	*	*	*	*
.	.	1B-	mi-	0d	mi-	2f\	mi-	0dd	.	.	.
.	.	.	.	.	.	2g\	.	.	.	2.g/	.
=28-	=28-	=28-	=28-	=28-	=28-	=28-	=28-	=28-	=28-	=28-	=28-
*	*	*	*	*	*	*	*	*	*	*col	*
.	.	1A	.	.	.	1a	.	.	.	.	.
*	*	*Xcol	*	*	*	*	*	*	*	*Xlig	*
*	*	*	*	*	*	*	*	*	*	*Xcol	*
.	.	.	.	.	.	.	.	.	.	8f/	.
.	.	.	.	.	.	.	.	.	.	8e/	.
.	.	.	.	.	.	.	.	.	.	2f#X/	.
!	!	!	!	!	!	!LO:N:acc=#	!	!	!	!	!
0.G	-a.	0.G	-a.	0.d	-a.	0.bn	-a.	0.dd	-a.	0.g	.
=29-	=29-	=29-	=29-	=29-	=29-	=29-	=29-	=29-	=29-	=29-	=29-
.	.	.	.	.	.	.	.	.	.	.	.
=-	=-	=-	=-	=-	=-	=-	=-	=-	=-	=-	=-
*-	*-	*-	*-	*-	*-	*-	*-	*-	*-	*-	*-
!!!system-decoration: [(s1,s2,s3,s4,s5,s6)]
!!!ENC: Mateusz Solarz
!!!END: 2022-06-14
!!!ENC: Urszula Świątek
!!!END: 2022-07-23
!!!ENC-iiif: Jolanta Bujas-Poniatowska
!!!END-iiif: 2022-09-22
!!!YEC: Copyright 2022 Narodowy Instytut Fryderyka Chopina (https://polishscores.org)
!!!YEM: License CC-BY-4.0 (https://creativecommons.org/licenses/by/4.0)
